spx-gui/src/components/ui/empty/empty-box.svg

<svg width="96" height="96" viewBox="0 0 96 96" fill="none" xmlns="http://www.w3.org/2000/svg">
  <path d="M0 48C0 84.8954 40.0001 107.955 72 89.5073C86.8512 80.9458 96 65.1232 96 48C96 11.1046 56 -11.955 24 6.4927C9.14876 15.0544 0 30.8768 0 48Z" fill="#EAEFF3"/>
  <ellipse cx="50.9054" cy="76.2822" rx="20.4132" ry="2.5" fill="#D9DFE5"/>
  <path d="M23.0521 31.9171C23.6632 29.5338 25.8111 27.8672 28.2715 27.8672H68.1036C70.564 27.8672 72.7119 29.5338 73.323 31.9171L77.6147 48.6547C77.7953 49.3593 77.8315 50.0933 77.7208 50.8123L75.229 67.0091C74.8246 69.6377 72.5629 71.578 69.9035 71.578H26.4716C23.8121 71.578 21.5504 69.6377 21.146 67.0091L18.6542 50.8123C18.5436 50.0933 18.5797 49.3593 18.7604 48.6547L23.0521 31.9171Z" fill="white"/>
  <path d="M28.0864 38.6872C28.6929 36.2976 30.8438 34.6245 33.3091 34.6245H64.4506C67.1017 34.6245 69.3589 36.553 69.7728 39.1716L71.4278 49.6432H64.0173L58.1552 57.1643H39.3525L33.5752 49.6432H25.3057L28.0864 38.6872Z" fill="#F8F8F8"/>
  <path d="M19.0542 49.7227H33.9544L38.019 55.4131C39.0304 56.8291 40.6634 57.6694 42.4036 57.6694H55.3057C57.0459 57.6694 58.6789 56.8291 59.6903 55.4131L63.7549 49.7227H78.6551" stroke="#24292F" stroke-linejoin="round"/>
  <path d="M23.1244 31.6351C23.7355 29.2518 25.8834 27.5852 28.3438 27.5852H68.7979C71.2583 27.5852 73.4062 29.2518 74.0173 31.6351L78.3813 48.6547C78.562 49.3594 78.5981 50.0934 78.4875 50.8124L75.9522 67.2913C75.5479 69.9198 73.2862 71.8602 70.6267 71.8602H26.515C23.8555 71.8602 21.5938 69.9198 21.1894 67.2913L18.6542 50.8124C18.5436 50.0934 18.5797 49.3594 18.7604 48.6547L23.1244 31.6351Z" stroke="#24292F" stroke-linejoin="round"/>
  <path d="M76.9552 26.0439C76.4278 26.0358 75.9937 26.4569 75.9856 26.9843C75.9776 27.5117 76.3986 27.9458 76.926 27.9538L82.1524 28.0337C82.6798 28.0418 83.1139 27.6208 83.122 27.0933C83.13 26.5659 82.709 26.1318 82.1816 26.1238L76.9552 26.0439Z" fill="black"/>
  <path d="M71.4131 17.9926C71.4212 17.4652 71.8553 17.0441 72.3827 17.0522C72.9101 17.0603 73.3311 17.4943 73.3231 18.0218L73.2432 23.2481C73.2351 23.7756 72.8011 24.1966 72.2736 24.1885C71.7462 24.1805 71.3252 23.7464 71.3333 23.2189L71.4131 17.9926Z" fill="black"/>
  <circle cx="24.0478" cy="68.1845" r="11.6745" fill="#36C2CF"/>
  <path d="M22.7007 62.2606C22.7007 61.5167 23.3038 60.9136 24.0477 60.9136C24.7917 60.9136 25.3948 61.5167 25.3948 62.2606V67.6489C25.3948 68.3928 24.7917 68.9959 24.0477 68.9959C23.3038 68.9959 22.7007 68.3928 22.7007 67.6489V62.2606Z" fill="white"/>
  <path d="M22.7007 73.9352C22.7007 74.6791 23.3038 75.2822 24.0477 75.2822C24.7917 75.2822 25.3948 74.6791 25.3948 73.9352C25.3948 73.1912 24.7917 72.5881 24.0477 72.5881C23.3038 72.5881 22.7007 73.1912 22.7007 73.9352Z" fill="white"/>
  <rect x="41.9287" y="60.2109" width="13.8519" height="3.82032" rx="1.91016" fill="#FFD350"/>
</svg>

<svg width="96" height="96" viewBox="0 0 96 96" fill="none" xmlns="http://www.w3.org/2000/svg">
  <path fill="#eaeff3" d="M0 48c0 36.895 40 59.955 72 41.507C86.851 80.946 96 65.123 96 48c0-36.895-40-59.955-72-41.507C9.149 15.054 0 30.877 0 48"/>
  <ellipse cx="50.905" cy="76.282" fill="#d9dfe5" rx="20.413" ry="2.5"/>
  <path fill="#fff" d="M23.052 31.917a5.39 5.39 0 0 1 5.22-4.05h39.832a5.39 5.39 0 0 1 5.219 4.05l4.292 16.738a5.4 5.4 0 0 1 .106 2.157L75.229 67.01a5.39 5.39 0 0 1-5.326 4.569H26.472a5.39 5.39 0 0 1-5.326-4.569l-2.492-16.197a5.4 5.4 0 0 1 .106-2.157z"/>
  <path fill="#f8f8f8" d="M28.086 38.687a5.39 5.39 0 0 1 5.223-4.062h31.142a5.39 5.39 0 0 1 5.322 4.547l1.655 10.471h-7.41l-5.863 7.521H39.352l-5.777-7.52h-8.27z"/>
  <path stroke="#24292f" stroke-linejoin="round" d="M19.054 49.723h14.9l4.065 5.69a5.39 5.39 0 0 0 4.385 2.256h12.902c1.74 0 3.373-.84 4.384-2.256l4.065-5.69h14.9"/>
  <path stroke="#24292f" stroke-linejoin="round" d="M23.124 31.635a5.39 5.39 0 0 1 5.22-4.05h40.454a5.39 5.39 0 0 1 5.22 4.05l4.363 17.02c.181.704.217 1.438.106 2.157l-2.535 16.48a5.39 5.39 0 0 1-5.325 4.568H26.515a5.39 5.39 0 0 1-5.326-4.569l-2.535-16.479a5.4 5.4 0 0 1 .106-2.157z"/>
  <path fill="#000" d="M76.955 26.044a.955.955 0 0 0-.029 1.91l5.226.08a.955.955 0 1 0 .03-1.91zm-5.542-8.051a.955.955 0 0 1 1.91.029l-.08 5.226a.955.955 0 1 1-1.91-.03z"/>
  <circle cx="24.048" cy="68.184" r="11.675" fill="#36c2cf"/>
  <path fill="#fff" d="M22.7 62.26a1.347 1.347 0 0 1 2.695 0v5.389a1.347 1.347 0 0 1-2.694 0zm0 11.675a1.347 1.347 0 1 0 2.695 0 1.347 1.347 0 0 0-2.694 0"/>
  <rect width="13.852" height="3.82" x="41.929" y="60.211" fill="#ffd350" rx="1.91"/>
</svg>
